X: 26325
T: Men Of The Deeps, The
R: reel
M: 4/4
K: Amajor
A2ED CEAc|efed eAAB|d2fdc2ec|dcBA BdcB|
A2ED CEAc|efed eAAB|defd cead|1 cABGA2cB:|2 cABGA2cd||
|:eAce affe|eaec fdBA|d2fd cdec|BABcB2cd|
[1 eAce affe|eaec fdBA|defd cead|cABGA2cd:|
[2 A2ED CEAc|efed eAAB|defd cead|cABGA4||

